X: 34730
T: Road To Hook Head, The
R: hornpipe
M: 4/4
K: Dmajor
|:FG|AdAF DAFD|A,DFA d2 cd|edcB A^G=GF|AdAF E2 FG|
AdAF DAFD|A,DFA d2 cd|edcB ABcd|1 dAfe d2:|2 dAfe d2 cd||
|:edef gecA|dAfe d2 AA|B^ABc edcB|A^G=GF E2 AF|
[1 DFAF GECA,|DFAd f2 ef|gfec dAcd|edce d2 cd:|
[2 DFAF GECA,|DFAc d2cd|edcB ABcd|dAfe d4||

